src/images/app-icons/dark-theme/TechUAgenda.svg

<svg xmlns="http://www.w3.org/2000/svg" xmlns:xlink="http://www.w3.org/1999/xlink" viewBox="0 0 32 32"><defs><linearGradient id="TechUAgenda_svg__a" x1="399.67" y1="7647" x2="399.67" y2="7639" gradientTransform="translate(-378.67 -7631)" gradientUnits="userSpaceOnUse"><stop offset=".2"/><stop offset="1" stop-opacity="0"/></linearGradient><linearGradient id="TechUAgenda_svg__b" x1="621.67" y1="-155" x2="621.67" y2="-163" gradientTransform="translate(-614.67 187)" xlink:href="#TechUAgenda_svg__a"/><linearGradient id="TechUAgenda_svg__d" y1="32" x2="32" gradientUnits="userSpaceOnUse"><stop offset=".1" stop-color="#3ddbd9"/><stop offset=".9" stop-color="#4589ff"/></linearGradient><mask id="TechUAgenda_svg__c" x="0" y="0" width="32" height="32" maskUnits="userSpaceOnUse"><path d="M26 30h-2v-2a5.006 5.006 0 00-5-5h-6a5.006 5.006 0 00-5 5v3H6v-3a7.009 7.009 0 017-7h6a7.009 7.009 0 017 7zM16 19a7.008 7.008 0 01-7-7v-1h2v1a5 5 0 0010 0V9h2v3a7.008 7.008 0 01-7 7z" fill="#fff"/><path transform="rotate(180 21 12)" fill="url(#TechUAgenda_svg__a)" d="M18 8h6v8h-6z"/><path fill="url(#TechUAgenda_svg__b)" d="M4 24h6v8H4z"/></mask></defs><g data-name="Layer 2"><g data-name="Dark theme icons"><g mask="url(#TechUAgenda_svg__c)"><path fill="url(#TechUAgenda_svg__d)" d="M0 0h32v32H0z"/></g><path d="M28 2H4v2h5v5h14V4h5zm-7 5H11V4h10zM5 7a1 1 0 00-1 1v8h2V8a1 1 0 00-1-1z" fill="#f4f4f4"/></g></g></svg>

<svg xmlns="http://www.w3.org/2000/svg" xmlns:xlink="http://www.w3.org/1999/xlink" viewBox="0 0 32 32"><defs><style>.cls-1{fill:#fff;}.cls-2{fill:url(#linear-gradient);}.cls-3{fill:url(#linear-gradient-2);}.cls-4{mask:url(#mask);}.cls-5{fill:url(#linear-gradient-3);}.cls-6{fill:#f4f4f4;}</style><linearGradient id="linear-gradient" x1="399.67" y1="7647" x2="399.67" y2="7639" gradientTransform="translate(-378.67 -7631)" gradientUnits="userSpaceOnUse"><stop offset="0.2"/><stop offset="1" stop-opacity="0"/></linearGradient><linearGradient id="linear-gradient-2" x1="621.67" y1="-155" x2="621.67" y2="-163" gradientTransform="translate(-614.67 187)" xlink:href="#linear-gradient"/><mask id="mask" x="0" y="0" width="32" height="32" maskUnits="userSpaceOnUse"><path class="cls-1" d="M26,30H24V28a5.006,5.006,0,0,0-5-5H13a5.006,5.006,0,0,0-5,5v3H6V28a7.009,7.009,0,0,1,7-7h6a7.009,7.009,0,0,1,7,7Z"/><path class="cls-1" d="M16,19a7.008,7.008,0,0,1-7-7V11h2v1a5,5,0,0,0,10,0V9h2v3A7.008,7.008,0,0,1,16,19Z"/><rect class="cls-2" x="18" y="8" width="6" height="8" transform="translate(42 24) rotate(180)"/><rect class="cls-3" x="4" y="24" width="6" height="8"/></mask><linearGradient id="linear-gradient-3" y1="32" x2="32" gradientUnits="userSpaceOnUse"><stop offset="0.1" stop-color="#3ddbd9"/><stop offset="0.9" stop-color="#4589ff"/></linearGradient></defs><g id="Layer_2" data-name="Layer 2"><g id="Dark_theme_icons" data-name="Dark theme icons"><g class="cls-4"><rect class="cls-5" width="32" height="32"/></g><path class="cls-6" d="M28,2H4V4H9V9H23V4h5ZM21,7H11V4H21Z"/><path class="cls-6" d="M5,7A1,1,0,0,0,4,8v8H6V8A1,1,0,0,0,5,7Z"/></g></g></svg>
